Numix/22/status/user-typing.svg

<?xml version="1.0" encoding="UTF-8" standalone="no"?>
<svg
   xmlns:dc="http://purl.org/dc/elements/1.1/"
   xmlns:cc="http://creativecommons.org/ns#"
   xmlns:rdf="http://www.w3.org/1999/02/22-rdf-syntax-ns#"
   xmlns:svg="http://www.w3.org/2000/svg"
   xmlns="http://www.w3.org/2000/svg"
   xmlns:sodipodi="http://sodipodi.sourceforge.net/DTD/sodipodi-0.dtd"
   xmlns:inkscape="http://www.inkscape.org/namespaces/inkscape"
   width="22"
   viewBox="0 0 22 22"
   height="22"
   id="svg2"
   version="1.1"
   inkscape:version="0.91 r"
   sodipodi:docname="user-typing.svg">
  <metadata
     id="metadata18">
    <rdf:RDF>
      <cc:Work
         rdf:about="">
        <dc:format>image/svg+xml</dc:format>
        <dc:type
           rdf:resource="http://purl.org/dc/dcmitype/StillImage" />
        <dc:title />
      </cc:Work>
    </rdf:RDF>
  </metadata>
  <sodipodi:namedview
     pagecolor="#ffffff"
     bordercolor="#666666"
     borderopacity="1"
     objecttolerance="10"
     gridtolerance="10"
     guidetolerance="10"
     inkscape:pageopacity="0"
     inkscape:pageshadow="2"
     inkscape:window-width="1920"
     inkscape:window-height="1056"
     id="namedview16"
     showgrid="true"
     inkscape:zoom="18.626066"
     inkscape:cx="21.763137"
     inkscape:cy="12.418819"
     inkscape:window-x="0"
     inkscape:window-y="24"
     inkscape:window-maximized="1"
     inkscape:current-layer="svg2"
     showguides="true"
     inkscape:guide-bbox="true">
    <inkscape:grid
       type="xygrid"
       id="grid3020" />
  </sodipodi:namedview>
  <defs
     id="defs4" />
  <g
     id="g3935"
     transform="translate(3,3)"
     style="fill:#b2d863;fill-opacity:1">
    <path
       style="fill:#b2d863;fill-opacity:1;stroke:none"
       d="m 11,3 c -4.418278,0 -8,3.1340067 -8,7 0,3.865993 3.581722,7 8,7 4.418278,0 8,-3.134007 8,-7 C 19,6.1340067 15.418278,3 11,3 Z M 7,8.9999999 c 0.5522847,0 1,0.4477153 1,1 C 8.0000001,10.552285 7.5522848,11 7,11 6.4477152,11 5.9999999,10.552285 6,9.9999999 c 0,-0.5522847 0.4477153,-1 1,-1 z m 4,0 c 0.552285,0 1,0.4477153 1,1 C 12,10.552285 11.552285,11 11,11 10.447715,11 9.9999999,10.552285 10,9.9999999 c 0,-0.5522847 0.447715,-1 1,-1 z m 4,0 c 0.552285,0 1,0.4477153 1,1 C 16,10.552285 15.552285,11 15,11 c -0.552285,0 -1,-0.447715 -1,-1.0000001 0,-0.5522847 0.447715,-1 1,-1 z"
       transform="translate(-3,-3)"
       id="path2999-7"
       inkscape:connector-curvature="0"
       sodipodi:nodetypes="ssssssssssssssssssss" />
    <path
       sodipodi:nodetypes="cccc"
       inkscape:connector-curvature="0"
       id="path3001-7"
       d="M 8.3362186,12 14,16 13,10 z"
       style="fill:#b2d863;fill-opacity:1;stroke:none" />
  </g>
</svg>

<?xml version="1.0" encoding="UTF-8" standalone="no"?>
<svg
   xmlns:dc="http://purl.org/dc/elements/1.1/"
   xmlns:cc="http://creativecommons.org/ns#"
   xmlns:rdf="http://www.w3.org/1999/02/22-rdf-syntax-ns#"
   xmlns:svg="http://www.w3.org/2000/svg"
   xmlns="http://www.w3.org/2000/svg"
   xmlns:sodipodi="http://sodipodi.sourceforge.net/DTD/sodipodi-0.dtd"
   xmlns:inkscape="http://www.inkscape.org/namespaces/inkscape"
   width="22"
   viewBox="0 0 22 22"
   height="22"
   id="svg2"
   version="1.1"
   inkscape:version="0.91 r"
   sodipodi:docname="user-typing.svg">
  <metadata
     id="metadata18">
    <rdf:RDF>
      <cc:Work
         rdf:about="">
        <dc:format>image/svg+xml</dc:format>
        <dc:type
           rdf:resource="http://purl.org/dc/dcmitype/StillImage" />
        <dc:title></dc:title>
      </cc:Work>
    </rdf:RDF>
  </metadata>
  <sodipodi:namedview
     pagecolor="#ffffff"
     bordercolor="#666666"
     borderopacity="1"
     objecttolerance="10"
     gridtolerance="10"
     guidetolerance="10"
     inkscape:pageopacity="0"
     inkscape:pageshadow="2"
     inkscape:window-width="1920"
     inkscape:window-height="1056"
     id="namedview16"
     showgrid="true"
     inkscape:zoom="9.3130328"
     inkscape:cx="31.868449"
     inkscape:cy="-7.2156261"
     inkscape:window-x="0"
     inkscape:window-y="24"
     inkscape:window-maximized="1"
     inkscape:current-layer="svg2"
     showguides="true"
     inkscape:guide-bbox="true">
    <inkscape:grid
       type="xygrid"
       id="grid3020" />
  </sodipodi:namedview>
  <defs
     id="defs4" />
  <g
     id="g3935"
     transform="translate(3,3)"
     style="fill:#b2d863;fill-opacity:1">
    <path
       style="fill:#b2d863;fill-opacity:1;stroke:none"
       d="M 11 3 C 6.581722 3 3 6.1340067 3 10 C 3 13.865993 6.581722 17 11 17 C 15.418278 17 19 13.865993 19 10 C 19 6.1340067 15.418278 3 11 3 z M 7 8.9804688 A 1 1 0 0 1 8 9.9804688 A 1 1 0 0 1 7 10.980469 A 1 1 0 0 1 6 9.9804688 A 1 1 0 0 1 7 8.9804688 z M 11 8.9804688 A 1 1 0 0 1 12 9.9804688 A 1 1 0 0 1 11 10.980469 A 1 1 0 0 1 10 9.9804688 A 1 1 0 0 1 11 8.9804688 z M 15 8.9804688 A 1 1 0 0 1 16 9.9804688 A 1 1 0 0 1 15 10.980469 A 1 1 0 0 1 14 9.9804688 A 1 1 0 0 1 15 8.9804688 z "
       transform="translate(-3,-3)"
       id="path2999-7" />
    <path
       sodipodi:nodetypes="cccc"
       inkscape:connector-curvature="0"
       id="path3001-7"
       d="M 8.3362186,12 14,16 13,10 z"
       style="fill:#b2d863;fill-opacity:1;stroke:none" />
  </g>
</svg>
